X: 942
T: Gülzâra Nazar Kıldım
C: Şevki Bey
O: Turkey
F: http://compmusic.upf.edu/node/140
N: ussak--sarki--aksak--gulzara_nazar--sevki_bey
N: makam= ussak
N: form= sarki
N: usul= aksak = 9/8
M: 9/8
L: 1/16
K: C _2/4B   
Q: 1/4=120
%%MIDI tuningsystem comma53
z4 G3A A4 A3/2B/A2 B2 | c2 {d}cBA2 {B}AccB BcBA G2BA  | 
w:  Gül *  zâ  |  *  *  *  *  ra  *  na *  zar  *  *  *  kıl  | 
A6cB AG^3/4FG A3G FG | A4A4f2 {g}fef4ga  | \
w:  dım  SAZ  |  *  vî râ  | 
aggf feed d3e dcBA Bc | 
w:  *  *  *  *  ne  *  mi *  sal_ *  ol  | 
d6 fedc Bcd3cBc  | d4 c3d e2{f}ed d4 dc | \
w:  muş   SAZ  |  *  Sey *  rân_  | 
c2 {d}cde2 {f}edd3edc BABd  | 
w:  *  *  *  *  ı  *  sa *  fâ *  lar   | 
c6de dcBA B4 Ac | B2 z2G4(3cBc dBA4G2  | \
w:  hep  SAZ  |  *  bir  hâb_  | 
dc2B A2{B}Ac cBBc BAG2 BA | 
w:  *  *  *  ı  *  ha *  yal_ *  *  *  ol  | 
A6 efed cde3d(3gfe  | e2z2 d3e e8-e2 | \
w:  muş   SAZ  |  *  Gül *  ler   | 
e3dg2 {a}g^3/4ffe edfg affe  | 
w:  *  *  sa *  ra *  rıp  *  *  *  sol  | 
e6ed dccd e3d (3g^3/4fe | e4d2 ede2 ^3/4fga4gf  | 
w:  muş  SAZ  |  *  bül *  *  bül  | 
^3/4fed2 c'2c'_1/4b baag gffe fe | \
w:  *  *  *  le ri  *  lâl_ *  *  *  ol  | 
e6 ^3/4fga3/2g/ fga3gfg  | 
w:  muş   SAZ  | 
a2z2 g3a a8 g^3/4f | g3^3/4fc'2 c'_1/4bba2ggf fefe  | 
w:  *  Gam_ *  â  |  *  *  le mi *  dir  *  *  şim  | 
e6ed dccd e3d (3g^3/4fe | e4d2 ede2 ^3/4fgag gffe  | 
w:  di  SAZ  |  *  zevk_ *  *  emr_  | 
eddc agfe e3d dccB dc | c6 cBBA ABc3g^3/4fg  | 
w:  *  *  *  *  i  *  mu *  hâl_ *  ol  |  muş   SAZ  | 
a4 g2a_1/4b c'4 baa2 g^3/4f | g3^3/4f_1/4b2 agag fed6  | \
w:  *  Sabr_ *  *  et   |  *  *  ge lir_ *  o  *  *  *  dem  | 
e2de ^3/4f2ef g2fa g4 gf | 
w:  ler   | 
g2 z2g2 ^3/4fef2 g2gf feed  | d2cB g2g^3/4f f3e (3edef2 ed | 
w:  *  kim_ *  *  ehl_  |  *  *  *  i  di *  lâ *  nın  | 
d6 fedc Bcd3cBc  | d4 c3d e2{f}ed d4 dc | \
w:  dır   SAZ  |  *  Dert_ *  üs  | 
c2 {d}cde2 {f}edd3edc BABd  | 
w:  *  *  *  *  tü *  ne  *  zevk_ *  ol  | 
c6de dcBA B4 Ac | B4G4(3cBc dBA4G2  | \
w:  maz  SAZ  |  *  dem  şim  | 
dc2B A2{B}Ac cBBc BAG2 BA | 
w:  *  *  *  di  *  ha *  zâ *  *  *  nın  | 
A4z2 dccB BAA4z2  | |


